static/assets/images/icons/wormhole.svg

<svg width="256" height="256" viewBox="0 0 256 256" fill="none" xmlns="http://www.w3.org/2000/svg">
<path d="M82.7781 217.198C59.1367 205.184 41.2251 184.277 32.9718 159.067C24.7202 133.858 26.8009 106.403 38.7589 82.7266C50.7904 59.0853 71.705 41.1837 96.9126 32.9483C122.119 24.7146 149.564 26.8177 173.225 38.7983C196.866 50.8169 214.777 71.7253 223.029 96.9344C231.281 122.146 229.198 149.602 217.239 173.28C205.208 196.92 184.294 214.819 159.088 223.053C133.879 231.286 106.435 229.181 82.7781 217.198ZM169.743 45.6656C147.905 34.6052 122.572 32.6607 99.3032 40.2621C76.0342 47.8634 56.7286 64.3876 45.6238 86.2096C34.5717 108.06 32.6435 133.41 40.2646 156.682C47.8823 179.956 64.4283 199.252 86.2607 210.329C108.095 221.407 133.431 223.36 156.705 215.759C179.976 208.161 199.28 191.627 210.374 169.797C221.413 147.942 223.336 122.598 215.717 99.3259C208.101 76.0543 191.566 56.7572 169.743 45.6656Z" fill="black"/>
<path d="M101.216 208.811C81.6295 198.856 66.7887 181.534 59.9541 160.646C53.1185 139.761 54.8437 117.015 64.75 97.3984C74.7185 77.8134 92.044 62.9828 112.928 56.1587C133.811 49.338 156.55 51.0804 176.151 61.0076C195.736 70.9616 210.572 88.2839 217.41 109.169C224.245 130.056 222.522 152.803 212.614 172.418C202.647 192.004 185.32 206.834 164.436 213.656C143.551 220.48 120.815 218.737 101.216 208.811ZM173.447 66.341C155.259 57.133 134.164 55.5163 114.789 61.8469C95.4133 68.1776 79.3388 81.9382 70.0919 100.109C60.9036 118.309 59.3066 139.408 65.648 158.782C71.9903 178.159 85.7572 194.23 103.925 203.467C122.109 212.674 143.201 214.288 162.576 207.96C181.95 201.632 198.023 187.878 207.272 169.708C216.461 151.511 218.059 130.409 211.717 111.033C205.374 91.6561 191.61 75.5888 173.442 66.3514L173.447 66.341Z" fill="black"/>
<path d="M119.646 200.428C104.115 192.536 92.3506 178.799 86.9285 162.237C81.509 145.674 82.8752 127.641 90.7306 112.087C98.6344 96.557 112.374 84.7949 128.933 79.3856C145.494 73.9771 163.522 75.3577 179.065 83.2281C194.598 91.1201 206.366 104.855 211.785 121.417C217.207 137.98 215.838 156.019 207.978 171.573C200.074 187.103 186.337 198.86 169.776 204.27C153.217 209.679 135.187 208.301 119.646 200.428ZM177.132 87.0396C162.601 79.678 145.743 78.3848 130.261 83.4421C114.775 88.5003 101.93 99.4966 94.5399 114.017C87.1992 128.561 85.922 145.424 90.9914 160.906C96.0608 176.389 107.064 189.227 121.584 196.605C136.113 203.965 152.968 205.261 168.45 200.206C183.932 195.15 196.778 184.156 204.171 169.639C211.516 155.096 212.795 138.232 207.726 122.745C202.657 107.261 191.655 94.4186 177.132 87.0396Z" fill="black"/>
<path d="M138.078 192.043C126.604 186.211 117.913 176.059 113.906 163.822C109.9 151.586 110.913 138.259 116.715 126.768C122.554 115.289 132.705 106.598 144.94 102.6C157.179 98.5997 170.502 99.6195 181.988 105.436C193.465 111.27 202.159 121.421 206.162 133.662C210.168 145.9 209.154 159.227 203.346 170.721C197.508 182.194 187.355 190.884 175.121 194.88C162.886 198.877 149.563 197.859 138.078 192.043ZM180.828 107.724C169.949 102.215 157.329 101.252 145.738 105.038C134.148 108.827 124.533 117.057 119.004 127.929C113.507 138.814 112.551 151.438 116.343 163.026C120.138 174.618 128.372 184.227 139.239 189.753C150.118 195.26 162.733 196.229 174.322 192.442C185.911 188.657 195.526 180.427 201.057 169.56C206.559 158.673 207.518 146.052 203.724 134.458C199.931 122.867 191.699 113.25 180.828 107.724Z" fill="black"/>
</svg>

<svg xmlns="http://www.w3.org/2000/svg" viewBox="0 0 256 256"><path d="M82.778 217.198a100.16 100.16 0 0 1-49.806-58.131 100.2 100.2 0 0 1 5.787-76.34 100.15 100.15 0 0 1 58.154-49.779 100.12 100.12 0 0 1 76.312 5.85 100.18 100.18 0 0 1 49.804 58.136 100.2 100.2 0 0 1-5.79 76.346 100.14 100.14 0 0 1-58.151 49.773 100.1 100.1 0 0 1-76.31-5.855m86.965-171.532a92.4 92.4 0 0 0-70.44-5.404 92.44 92.44 0 0 0-53.68 45.948 92.42 92.42 0 0 0 40.638 124.119 92.33 92.33 0 0 0 70.444 5.43 92.37 92.37 0 0 0 53.669-45.962 92.5 92.5 0 0 0 5.343-70.471 92.45 92.45 0 0 0-45.974-53.66"/><path d="M101.216 208.811a82.97 82.97 0 0 1-41.262-48.165 83.02 83.02 0 0 1 4.796-63.248 82.94 82.94 0 0 1 111.401-36.39 82.98 82.98 0 0 1 41.259 48.161 83.02 83.02 0 0 1-4.796 63.249 82.96 82.96 0 0 1-48.178 41.238 82.92 82.92 0 0 1-63.22-4.845m72.231-142.47a76.95 76.95 0 0 0-58.658-4.494 76.98 76.98 0 0 0-44.697 38.262 77.02 77.02 0 0 0-4.444 58.673 77 77 0 0 0 38.277 44.685 76.95 76.95 0 0 0 58.651 4.493 76.97 76.97 0 0 0 44.696-38.252 77.02 77.02 0 0 0 4.445-58.675 77 77 0 0 0-38.275-44.682z"/><path d="M119.646 200.428a65.8 65.8 0 0 1-32.717-38.191 65.83 65.83 0 0 1 3.802-50.15 65.77 65.77 0 0 1 88.334-28.859 65.813 65.813 0 0 1 28.913 88.345 65.78 65.78 0 0 1-38.202 32.697 65.75 65.75 0 0 1-50.13-3.842M177.132 87.04a61.48 61.48 0 0 0-46.871-3.598 61.5 61.5 0 0 0-35.721 30.575 61.56 61.56 0 0 0-3.549 46.889 61.5 61.5 0 0 0 30.593 35.699 61.48 61.48 0 0 0 46.866 3.601 61.52 61.52 0 0 0 35.721-30.567 61.55 61.55 0 0 0 3.555-46.894 61.52 61.52 0 0 0-30.594-35.705"/><path d="M138.078 192.043a48.64 48.64 0 0 1-21.363-65.275A48.6 48.6 0 0 1 144.94 102.6a48.6 48.6 0 0 1 37.048 2.836 48.6 48.6 0 0 1 24.174 28.226 48.63 48.63 0 0 1-2.816 37.059 48.6 48.6 0 0 1-28.225 24.159 48.6 48.6 0 0 1-37.043-2.837m42.75-84.319a46.034 46.034 0 0 0-61.824 20.205 46.06 46.06 0 0 0 20.235 61.824 46.02 46.02 0 0 0 35.083 2.689 46.04 46.04 0 0 0 26.735-22.882 46.06 46.06 0 0 0 2.667-35.102 46.05 46.05 0 0 0-22.896-26.734"/></svg>
